X:1
T:Title
%%score { 1 | 2 }
L:1/8
M:6/8
K:A
V:1 treble nm="Grand Piano"
V:2 bass 
V:1
 z3 z2[Q:1/4=93] E | [CA]2 [CA] [DA]2 [DF] | [CE]3 [A,C]2 [B,D] | [CE]2 [CE] [=CF]2 [CF] | %4
 [CE]3- [CE] z [CE]/[CE]/ | [EA]2 [EA] [EA]2 B | c3 A2 A | B2 B [^DB]2 [Dc] | B3- B z c | %9
 e2 e e2 e | .e c2 z2 [EA] | [FB]2 [FA] [FA]2 [DF] | [CE]3- [CE] z [CE] | [CE]2 [EA] [EA]2 B | %14
[M:7/8] c2 c e3 c |[M:3/4] .A A2 [DAB]2 [DAc] | [EGB]4 z c | e2 e c2 [EA] | %18
[M:7/8] [FB]2 [FA] [FA]3 F | %19
[M:3/4] .E A2 A2 B[Q:1/4=92][Q:1/4=90][Q:1/4=89][Q:1/4=88][Q:1/4=86][Q:1/4=85] | %20
[M:5/8] [CA]-[CA]- [CA]3[Q:1/4=83][Q:1/4=82][Q:1/4=81][Q:1/4=79][Q:1/4=78][Q:1/4=77][Q:1/4=75][Q:1/4=74][Q:1/4=72][Q:1/4=71] |] %21
V:2
 z3 z2 E, | [A,,E,]2 [A,,E,] [A,,F,]2 [A,,A,] | [A,,A,]3 [A,,E,]2 [A,,E,] | %3
 [A,,A,]2 [A,,E,] [A,,^D,]2 [A,,D,] | [A,,E,]3- [A,,E,] z [A,,A,] | %5
 [C,A,]2 [C,A,] [C,A,]2 [E,G,E] | [A,E]3 [A,C]2 [A,C] | [F,A,^D]2 [F,A,D] [B,,A,]2 [B,,A,] | %8
 [E,G,E]3- [E,G,E] z [A,E] | [A,CE]2 [A,CE] [A,CE]2 [A,CE] | .[A,CE] [A,E]2 z2 [C,A,] | %11
 [D,A,]2 [D,D] [D,D]2 [D,A,] | [A,,A,]3- [A,,A,] z [A,,A,] | [A,,A,]2 [C,A,] [C,A,]2 [E,G,E] | %14
[M:7/8] [A,E]2 [A,E] [A,CE]3 [A,E] |[M:3/4] .[A,CE] [A,CE]2 F,2 B,, | E,4 z[K:treble] [A,EA] | %17
 [A,CA]2 [A,CA][K:bass] [A,E]2 [C,A,] |[M:7/8] [D,A,]2 [D,D] [D,D]3 [D,A,D] | %19
[M:3/4] .[E,A,C] [E,A,C]2 [E,A,C]2 [E,G,D] |[M:5/8] [A,,A,]-[A,,A,]- [A,,A,]3 |] %21

